lib/svgs/circle-arrow-down-o.svg

<svg xmlns="http://www.w3.org/2000/svg" viewBox="0 0 20 20">
    <path fill="#000" fill-rule="evenodd" d="M2,10 C2,14.418 5.582,18 10,18 C14.418,18 18,14.418 18,10 C18,5.582 14.418,2 10,2 C5.582,2 2,5.582 2,10 L2,10 L2,10 L2,10 L2,10 L2,10 L2,10 Z M16.8,10 C16.8,13.75 13.75,16.8 10,16.8 C6.25,16.8 3.2,13.75 3.2,10 C3.2,6.25 6.25,3.2 10,3.2 C13.75,3.2 16.8,6.25 16.8,10 L16.8,10 L16.8,10 L16.8,10 L16.8,10 L16.8,10 L16.8,10 L16.8,10 Z M9.3999,6.4852 L9.3999,12.0662 L7.0909,9.7572 C6.8569,9.5232 6.4769,9.5232 6.2419,9.7572 C6.0079,9.9912 6.0079,10.3712 6.2419,10.6062 L9.5759,13.9392 C9.8099,14.1732 10.1899,14.1732 10.4239,13.9392 L13.7569,10.6062 C13.8739,10.4882 13.9329,10.3352 13.9329,10.1812 C13.9329,10.0282 13.8739,9.8742 13.7569,9.7572 C13.5239,9.5232 13.1429,9.5232 12.9089,9.7572 L10.5999,12.0662 L10.5999,6.4852 C10.5999,6.1532 10.3319,5.8852 9.9999,5.8852 C9.6689,5.8852 9.3999,6.1532 9.3999,6.4852 L9.3999,6.4852 L9.3999,6.4852 L9.3999,6.4852 L9.3999,6.4852 L9.3999,6.4852 L9.3999,6.4852 Z"/>
</svg>

<svg xmlns="http://www.w3.org/2000/svg" viewBox="0 0 20 20">
    <path fill="#000" fill-rule="evenodd" d="M2 10a8 8 0 1 0 16 0 8 8 0 0 0-16 0m14.8 0c0 3.75-3.05 6.8-6.8 6.8S3.2 13.75 3.2 10 6.25 3.2 10 3.2s6.8 3.05 6.8 6.8M9.4 6.485v5.581L7.09 9.757a.601.601 0 0 0-.848.85l3.334 3.332a.6.6 0 0 0 .848 0l3.333-3.333a.601.601 0 0 0-.848-.849l-2.31 2.31V6.484a.6.6 0 1 0-1.2 0"/>
</svg>
